X:1
T:Reel du Chien de Chasse
C:Paul Rosen
S:Copyright 2004, Paul Rosen
M:4/4 
L:1/8
Q:116
R:French Canadian
K:D
|:"D"a2ff"G"g2ef|"Em"g2bbe4|"G"g2b2"D"agf2|"Em"gfed"A"c2A2|
"D"a2ff"G"g2ef|"Em"g2bbe4|"G"gfed"A"c2AA|"D"d8:|
|:"D"A2DD~F2D2|dBAG~F2D2|dBAG~F2AB|"A"cdec"D"d4:|
|:"D"f2dd~B2A2|~F2D2~F2D2|f2dd~B2A2|"A"cdec"D"d4:|
